X:1735
T:Galoppad Wals No 18
T:efter M J Persson
R:Galopp
S:Efter M J Persson, Roalöv
O:Roalöv, Skåne
B:nr 18 ur FMK M45a
Z:ABC-transkribering av Åke Persson
M:2/4
L:1/8
Q:1/4=150
K:D
DEFG | Af d2 | eg e2 | Af d2 | DEFG | Af d2 | cBA^G | A2 Az ::
Ad/e/ g2 | Ad/e/ f2 | Acec | dfba | Ad/e/ g2 | Ad/e/ f2 | agec | d2 dz :|

(:musicend:)

(:music:)
